packages/icons/svgs/solid/Source=block.svg

<svg width="12" height="12" viewBox="0 0 12 12" fill="none" xmlns="http://www.w3.org/2000/svg">
<g clip-path="url(#clip0_2006_886)">
<path d="M6 4.89225L10.5 2.39175L6.3645 0.0945004C6.25302 0.0325053 6.12756 -3.05176e-05 6 -3.05176e-05C5.87244 -3.05176e-05 5.74698 0.0325053 5.6355 0.0945004L1.5 2.39175L6 4.89225Z" fill="black"/>
<path d="M6.75 6.19125V11.691L10.8645 9.405C10.9814 9.34002 11.0787 9.24498 11.1465 9.12973C11.2143 9.01448 11.25 8.8832 11.25 8.7495V3.6915L6.75 6.19125Z" fill="black"/>
<path d="M5.25 6.19125L0.75 3.6915V8.7495C0.749994 8.8832 0.785732 9.01448 0.853511 9.12973C0.921291 9.24498 1.01865 9.34002 1.1355 9.405L5.25 11.691V6.19125Z" fill="black"/>
</g>
<defs>
<clipPath id="clip0_2006_886">
<rect width="12" height="12" fill="white"/>
</clipPath>
</defs>
</svg>

<svg xmlns="http://www.w3.org/2000/svg" width="12" height="12" viewBox="0 0 12 12"><g clip-path="url(#a)"><path d="m6 4.892 4.5-2.5L6.364.095a.75.75 0 0 0-.728 0L1.5 2.392l4.5 2.5Zm.75 1.299v5.5l4.114-2.286a.75.75 0 0 0 .386-.655V3.69l-4.5 2.5Zm-1.5 0-4.5-2.5V8.75a.75.75 0 0 0 .385.655l4.115 2.286v-5.5Z"/></g><defs><clipPath id="a"><path fill="#fff" d="M0 0h12v12H0z"/></clipPath></defs></svg>
